packages/ui-icons/svg/Solid/bullet-list-alpha.svg

<svg viewBox="0 0 1920 1920" version="1.1" xmlns="http://www.w3.org/2000/svg">
    <path d="M626.15 530.675h1280v-225h-1280v225zm0 565h1280v-225h-1280v225zm0 563h1280v-225h-1280v225zM271.675 429.5L234.55 319.775c-2.75-6.967-5.683-15.171-8.8-24.613-3.117-9.441-6.233-19.662-9.35-30.662-2.75 11.183-5.683 21.542-8.8 31.075-3.117 9.533-6.05 17.783-8.8 24.75L161.95 429.5h109.725zM419.35 582.675H347.3c-8.067 0-14.575-1.879-19.525-5.638-4.95-3.758-8.708-8.57-11.275-14.437l-23.65-69.85H140.5l-23.65 69.85c-2.017 5.133-5.637 9.762-10.862 13.887-5.226 4.126-11.688 6.188-19.388 6.188H14L169.1 182h95.15l155.1 400.675zM230.325 1112.55c12.283 0 22.321-1.558 30.112-4.675 7.792-3.117 13.888-7.15 18.288-12.1 4.4-4.95 7.425-10.541 9.075-16.775a73.843 73.843 0 0 0 2.475-18.975c0-7.333-.963-13.933-2.887-19.8-1.925-5.866-5.226-10.816-9.9-14.85-4.676-4.034-10.863-7.15-18.563-9.35-7.7-2.2-17.416-3.3-29.15-3.3h-64.9v99.825h65.45zm-65.45-260.975v99h48.4c10.267 0 19.525-.733 27.775-2.2s15.262-4.033 21.038-7.7c5.775-3.667 10.175-8.708 13.199-15.125 3.025-6.417 4.538-14.483 4.538-24.2 0-9.533-1.192-17.462-3.575-23.788-2.383-6.324-6.05-11.412-11-15.262-4.95-3.85-11.229-6.6-18.838-8.25-7.608-1.65-16.637-2.475-27.087-2.475h-54.45zM219.325 782c27.684 0 51.242 2.567 70.675 7.7s35.292 12.375 47.575 21.725c12.283 9.35 21.221 20.716 26.813 34.1 5.591 13.384 8.387 28.325 8.387 44.825 0 8.983-1.283 17.646-3.85 25.987-2.567 8.342-6.6 16.134-12.1 23.375-5.5 7.242-12.558 13.888-21.175 19.938-8.616 6.05-18.975 11.275-31.075 15.675 26.4 6.417 45.925 16.775 58.575 31.075 12.65 14.301 18.975 32.816 18.975 55.55 0 17.05-3.3 32.909-9.9 47.575-6.6 14.667-16.271 27.454-29.012 38.362-12.742 10.909-28.463 19.434-47.163 25.575-18.7 6.142-40.058 9.213-64.075 9.213H71.925V782h147.4zm126.65 847c2.2 0 4.4.412 6.6 1.238 2.2.825 4.308 2.246 6.325 4.262l36.85 38.775c-16.133 21.084-36.346 36.987-60.637 47.713-24.292 10.724-53.03 16.087-86.213 16.087-30.433 0-57.704-5.179-81.812-15.538-24.109-10.358-44.551-24.658-61.326-42.9-16.774-18.241-29.654-39.874-38.637-64.899-8.984-25.026-13.475-52.204-13.475-81.538 0-29.883 4.858-57.337 14.575-82.363 9.717-25.024 23.375-46.612 40.975-64.762s38.683-32.267 63.25-42.35c24.567-10.083 51.608-15.125 81.125-15.125 15.033 0 29.196 1.329 42.487 3.987 13.292 2.658 25.713 6.325 37.263 11 11.55 4.675 22.183 10.313 31.9 16.913 9.717 6.6 18.333 13.75 25.85 21.45l-31.35 42.075c-2.017 2.567-4.4 4.904-7.15 7.012-2.75 2.109-6.6 3.163-11.55 3.163-3.3 0-6.417-.733-9.35-2.2-2.933-1.466-6.05-3.255-9.35-5.363a1772.26 1772.26 0 0 0-10.862-6.875c-3.942-2.475-8.617-4.767-14.026-6.875-5.408-2.107-11.733-3.895-18.974-5.362-7.242-1.467-15.721-2.2-25.438-2.2-15.4 0-29.471 2.841-42.213 8.525-12.741 5.684-23.741 13.979-33 24.888-9.258 10.908-16.408 24.291-21.449 40.149-5.042 15.858-7.563 33.963-7.563 54.313 0 20.534 2.796 38.775 8.387 54.725 5.592 15.95 13.2 29.379 22.825 40.287 9.625 10.908 20.855 19.204 33.688 24.888 12.833 5.684 26.583 8.525 41.25 8.525 8.434 0 16.133-.413 23.1-1.238 6.967-.824 13.475-2.199 19.525-4.125 6.05-1.925 11.733-4.491 17.05-7.699 5.317-3.209 10.725-7.288 16.225-12.238a32.536 32.536 0 0 1 7.15-4.538c2.567-1.191 5.225-1.787 7.975-1.787z" stroke="none" stroke-width="1" fill-rule="evenodd"/>
</svg>

<svg viewBox="0 0 1920 1920" version="1.1" xmlns="http://www.w3.org/2000/svg">
    <path d="M626.15,530.675 L1906.15,530.675 L1906.15,305.675 L626.15,305.675 L626.15,530.675 Z M626.15,1095.675 L1906.15,1095.675 L1906.15,870.675 L626.15,870.675 L626.15,1095.675 Z M626.15,1658.675 L1906.15,1658.675 L1906.15,1433.675 L626.15,1433.675 L626.15,1658.675 Z M271.675,429.5 L234.55,319.775 C231.8,312.808 228.867,304.604 225.75,295.162 C222.633,285.721 219.517,275.5 216.4,264.5 C213.65,275.683 210.717,286.042 207.6,295.575 C204.483,305.108 201.55,313.358 198.8,320.325 L161.95,429.5 L271.675,429.5 Z M419.35,582.675 L347.3,582.675 C339.233,582.675 332.725,580.796 327.775,577.037 C322.825,573.279 319.067,568.467 316.5,562.6 L292.85,492.75 L140.5,492.75 L116.85,562.6 C114.833,567.733 111.213,572.362 105.988,576.487 C100.762,580.613 94.3,582.675 86.6,582.675 L14,582.675 L169.1,182 L264.25,182 L419.35,582.675 Z M230.325,1112.55 C242.608,1112.55 252.646,1110.992 260.437,1107.875 C268.229,1104.758 274.325,1100.725 278.725,1095.775 C283.125,1090.825 286.15,1085.234 287.8,1079 C289.45,1072.767 290.275,1066.442 290.275,1060.025 C290.275,1052.692 289.312,1046.092 287.388,1040.225 C285.463,1034.359 282.162,1029.409 277.488,1025.375 C272.812,1021.341 266.625,1018.225 258.925,1016.025 C251.225,1013.825 241.509,1012.725 229.775,1012.725 L164.875,1012.725 L164.875,1112.55 L230.325,1112.55 Z M164.875,851.575 L164.875,950.575 L213.275,950.575 C223.542,950.575 232.8,949.842 241.05,948.375 C249.3,946.908 256.312,944.342 262.088,940.675 C267.863,937.008 272.263,931.967 275.287,925.55 C278.312,919.133 279.825,911.067 279.825,901.35 C279.825,891.817 278.633,883.888 276.25,877.562 C273.867,871.238 270.2,866.15 265.25,862.3 C260.3,858.45 254.021,855.7 246.412,854.05 C238.804,852.4 229.775,851.575 219.325,851.575 L164.875,851.575 Z M219.325,782 C247.009,782 270.567,784.567 290,789.7 C309.433,794.833 325.292,802.075 337.575,811.425 C349.858,820.775 358.796,832.141 364.388,845.525 C369.979,858.909 372.775,873.85 372.775,890.35 C372.775,899.333 371.492,907.996 368.925,916.337 C366.358,924.679 362.325,932.471 356.825,939.712 C351.325,946.954 344.267,953.6 335.65,959.65 C327.034,965.7 316.675,970.925 304.575,975.325 C330.975,981.742 350.5,992.1 363.15,1006.4 C375.8,1020.701 382.125,1039.216 382.125,1061.95 C382.125,1079 378.825,1094.859 372.225,1109.525 C365.625,1124.192 355.954,1136.979 343.213,1147.887 C330.471,1158.796 314.75,1167.321 296.05,1173.462 C277.35,1179.604 255.992,1182.675 231.975,1182.675 L71.925,1182.675 L71.925,782 L219.325,782 Z M345.975,1629 C348.175,1629 350.375,1629.412 352.575,1630.238 C354.775,1631.063 356.883,1632.484 358.9,1634.5 L395.75,1673.275 C379.617,1694.359 359.404,1710.262 335.113,1720.988 C310.821,1731.712 282.083,1737.075 248.9,1737.075 C218.467,1737.075 191.196,1731.896 167.088,1721.537 C142.979,1711.179 122.537,1696.879 105.762,1678.637 C88.988,1660.396 76.108,1638.763 67.125,1613.738 C58.141,1588.712 53.65,1561.534 53.65,1532.2 C53.65,1502.317 58.508,1474.863 68.225,1449.837 C77.942,1424.813 91.6,1403.225 109.2,1385.075 C126.8,1366.925 147.883,1352.808 172.45,1342.725 C197.017,1332.642 224.058,1327.6 253.575,1327.6 C268.608,1327.6 282.771,1328.929 296.062,1331.587 C309.354,1334.245 321.775,1337.912 333.325,1342.587 C344.875,1347.262 355.508,1352.9 365.225,1359.5 C374.942,1366.1 383.558,1373.25 391.075,1380.95 L359.725,1423.025 C357.708,1425.592 355.325,1427.929 352.575,1430.037 C349.825,1432.146 345.975,1433.2 341.025,1433.2 C337.725,1433.2 334.608,1432.467 331.675,1431 C328.742,1429.534 325.625,1427.745 322.325,1425.637 C319.025,1423.53 315.404,1421.238 311.463,1418.762 C307.521,1416.287 302.846,1413.995 297.437,1411.887 C292.029,1409.78 285.704,1407.992 278.463,1406.525 C271.221,1405.058 262.742,1404.325 253.025,1404.325 C237.625,1404.325 223.554,1407.166 210.812,1412.85 C198.071,1418.534 187.071,1426.829 177.812,1437.738 C168.554,1448.646 161.404,1462.029 156.363,1477.887 C151.321,1493.745 148.8,1511.85 148.8,1532.2 C148.8,1552.734 151.596,1570.975 157.187,1586.925 C162.779,1602.875 170.387,1616.304 180.012,1627.212 C189.637,1638.12 200.867,1646.416 213.7,1652.1 C226.533,1657.784 240.283,1660.625 254.95,1660.625 C263.384,1660.625 271.083,1660.212 278.05,1659.387 C285.017,1658.563 291.525,1657.188 297.575,1655.262 C303.625,1653.337 309.308,1650.771 314.625,1647.563 C319.942,1644.354 325.35,1640.275 330.85,1635.325 C333.05,1633.492 335.433,1631.979 338,1630.787 C340.567,1629.596 343.225,1629 345.975,1629 L345.975,1629 Z" stroke="none" stroke-width="1" fill-rule="evenodd"/>
</svg>
